public/dark.svg

<svg width="31" height="30" viewBox="0 0 31 30" fill="none" xmlns="http://www.w3.org/2000/svg">
<rect x="0.5" y="0.5" width="30" height="29" rx="3.5" fill="white" stroke="#B8B8B8"/>
<path d="M22.5833 15C22.5833 15.4142 22.9191 15.75 23.3333 15.75C23.7475 15.75 24.0833 15.4142 24.0833 15H22.5833ZM15.0833 6.75L15.103 6.00026C14.7971 5.99222 14.517 6.17087 14.3952 6.45166C14.2735 6.73244 14.3346 7.05903 14.5495 7.27685L15.0833 6.75ZM7.75 19.5833L7.89951 18.8484C7.60037 18.7875 7.29419 18.9141 7.12528 19.1683C6.95636 19.4226 6.95842 19.7539 7.13048 20.0061L7.75 19.5833ZM22.0826 20.7122C22.3435 20.3904 22.2941 19.9181 21.9723 19.6573C21.6505 19.3965 21.1782 19.4459 20.9174 19.7676L22.0826 20.7122ZM24.0833 15C24.0833 10.0931 20.0739 6.13092 15.103 6.00026L15.0636 7.49974C19.2607 7.61006 22.5833 10.9446 22.5833 15H24.0833ZM7.13048 20.0061C8.80472 22.4597 11.9004 24 15.0833 24V22.5C12.3466 22.5 9.73748 21.1654 8.36952 19.1606L7.13048 20.0061ZM7.60049 20.3183C11.6102 21.134 15.0456 19.0443 16.7537 16.076C18.4643 13.1037 18.4997 9.14366 15.6171 6.22315L14.5495 7.27685C16.8763 9.63427 16.8897 12.8324 15.4536 15.3279C14.0151 17.8275 11.1791 19.5155 7.89951 18.8484L7.60049 20.3183ZM15.0833 24C17.9564 24 20.4525 22.7232 22.0826 20.7122L20.9174 19.7676C19.5675 21.433 17.4969 22.5 15.0833 22.5V24Z" fill="black"/>
</svg>

<svg width="31" height="30" fill="none" xmlns="http://www.w3.org/2000/svg"><rect x=".5" y=".5" width="30" height="29" rx="3.5" fill="#fff" stroke="#B8B8B8"/><path d="M22.583 15a.75.75 0 0 0 1.5 0h-1.5Zm-7.5-8.25.02-.75a.75.75 0 0 0-.553 1.277l.533-.527ZM7.75 19.583l.15-.735a.75.75 0 0 0-.77 1.158l.62-.423Zm14.333 1.13a.75.75 0 1 0-1.166-.945l1.166.944Zm2-5.713c0-4.907-4.01-8.87-8.98-9l-.04 1.5c4.198.11 7.52 3.445 7.52 7.5h1.5ZM7.13 20.006C8.805 22.46 11.9 24 15.083 24v-1.5c-2.736 0-5.346-1.335-6.713-3.34l-1.24.846Zm.47.312c4.01.816 7.446-1.274 9.154-4.242 1.71-2.972 1.746-6.932-1.137-9.853L14.55 7.277c2.327 2.357 2.34 5.555.905 8.05-1.439 2.5-4.275 4.188-7.554 3.521l-.3 1.47ZM15.083 24c2.873 0 5.37-1.277 7-3.288l-1.166-.944c-1.35 1.665-3.42 2.732-5.834 2.732V24Z" fill="#000"/></svg>
